pic/jsdelivr-dark.svg

<svg xmlns="http://www.w3.org/2000/svg" width="135" height="32" viewBox="0 0 135 32">
  <g fill="none" fill-rule="evenodd">
    <path fill="#FFF" d="M41.8713592,18.4684792 C41.8713592,22.31328 40.5379193,24.2361604 37.8700803,24.2361604 C37.4588288,24.2364787 37.0553082,24.1808006 36.6595185,24.069119 L36.6595185,23.001599 C37.0963204,23.149439 37.5071984,23.22432 37.8931184,23.22432 C38.9155174,23.22432 39.6527983,22.83648 40.1049593,22.06368 C40.5571202,21.288961 40.7827202,20.0832001 40.7827202,18.4454412 L40.7827202,8.02079947 L41.8713592,8.02079947 L41.8713592,18.4684792 Z M45.1824,23.392319 L45.1824,22.1356791 C46.32288,22.861439 47.4796819,23.225279 48.6499199,23.225279 C49.8940808,23.225279 50.8387188,22.967999 51.4838398,22.4524791 C52.1280007,21.9369581 52.4505597,21.2159991 52.4505597,20.2915192 C52.4505597,19.4755192 52.2335978,18.8246402 51.7996778,18.3408002 C51.3667179,17.8550393 50.4278369,17.1945602 48.982077,16.3564803 C47.367358,15.4166406 46.3449552,14.6294409 45.9148771,13.9948807 C45.4857591,13.3612809 45.2707162,12.6297608 45.2707162,11.8003206 C45.2707162,10.6752006 45.7075181,9.71808094 46.5820771,8.93184078 C47.4566361,8.14752043 48.6230361,7.75392054 50.083196,7.75392054 C51.0575844,7.75722016 52.0057447,7.91658044 52.9276768,8.23200071 L52.9276768,9.38784018 C51.9775908,8.95932395 50.9814305,8.74812367 49.9391979,8.75424031 C48.8572799,8.75424031 47.999998,9.02976001 47.365439,9.57792008 C46.7327981,10.1260802 46.4150371,10.82304 46.4150371,11.6678401 C46.4150371,12.4819197 46.631999,13.1308801 47.064959,13.6128 C47.498879,14.0928 48.433918,14.74944 49.8710389,15.5788794 C51.3599979,16.4246403 52.3516788,17.1753593 52.8441588,17.8300783 C53.3375987,18.4867183 53.5833597,19.2403182 53.5833597,20.0918372 C53.5833597,21.3148772 53.1590387,22.3103981 52.3113588,23.0812781 C51.4627198,23.8521571 50.2636798,24.237118 48.7152009,24.237118 C48.1660818,24.237118 47.5353609,24.150718 46.8211209,23.9817571 C46.1059219,23.810878 45.560641,23.6140781 45.1824,23.3923171 L45.1824,23.392319 Z M56.7398376,23.958719 L56.7398376,8.02079947 L62.3855984,8.02079947 C68.0447943,8.02079947 70.875839,10.6108794 70.875839,15.7900784 C70.875839,18.2716773 70.103039,20.2540782 68.5593571,21.7363191 C67.0137572,23.2175981 64.9564792,23.958719 62.3855984,23.958719 L56.7398376,23.958719 L56.7398376,23.958719 Z M60.3302432,10.9449598 L60.3302432,21.046081 L62.1081641,21.046081 C63.664326,21.046081 64.8844821,20.5804801 65.7696069,19.6464001 C66.6547239,18.7123211 67.0972897,17.4422412 67.0972897,15.8352013 C67.0972897,14.3155212 66.6585687,13.1212818 65.7801678,12.2505613 C64.9027269,11.3798408 63.6691308,10.9449598 62.0841699,10.9449598 L60.3302432,10.9449598 L60.3302432,10.9449598 Z M83.3673594,23.958719 L73.8086398,23.958719 L73.8086398,8.02079947 L82.9996765,8.02079947 L82.9996765,10.9449598 L77.3990377,10.9449598 L77.3990377,14.4902396 L82.6118375,14.4902396 L82.6118375,17.4009602 L77.3990377,17.4009602 L77.3990377,21.0451191 L83.3673594,21.0451191 L83.3673594,23.958719 Z M95.8972808,23.958719 L86.4057602,23.958719 L86.4057602,8.02079947 L89.9961582,8.02079947 L89.9961582,21.0460791 L95.8972808,21.0460791 L95.8972808,23.958719 Z M101.749442,8.02079947 L101.749442,23.958719 L98.1590436,23.958719 L98.1590436,8.02079947 L101.749442,8.02079947 L101.749442,8.02079947 Z M118.880642,8.02080043 L113.3904,23.958719 L109.32384,23.958719 L103.89888,8.02080043 L107.766719,8.02080043 L111.090237,19.1116811 C111.268794,19.7116811 111.375354,20.2425611 111.412795,20.7024011 L111.478076,20.7024011 C111.542552,20.1470324 111.657747,19.6023928 111.823677,19.0684811 L115.12512,8.02080043 L118.880642,8.02080043 L118.880642,8.02080043 Z M134.399994,23.958719 L130.276796,23.958719 L127.799042,19.8566382 C127.630278,19.5732366 127.45268,19.295477 127.26625,19.0233582 C127.111899,18.7991407 126.939413,18.5898616 126.748808,18.3955192 C126.589711,18.2319564 126.408262,18.0988351 126.204487,17.9961593 C126.00959,17.901557 125.803838,17.8551583 125.587201,17.8569583 L124.621445,17.8569583 L124.621445,23.958719 L121.031047,23.958719 L121.031047,8.02079947 L126.719995,8.02079947 C130.587841,8.02079947 132.521274,9.46655903 132.521274,12.3551997 C132.526884,12.8835276 132.441762,13.396807 132.265908,13.8950397 C132.095034,14.3654394 131.855034,14.7897598 131.543989,15.1670403 C131.221532,15.5555334 130.845214,15.8819331 130.415034,16.1462403 C129.95412,16.4292464 129.463237,16.643647 128.942397,16.7894412 L128.942397,16.8345612 C129.180478,16.9075222 129.40895,17.0294412 129.632632,17.1945612 C129.854394,17.3616012 130.069433,17.5564821 130.27583,17.7801621 C130.484145,18.0019231 130.682866,18.2400021 130.870073,18.4963221 C131.059198,18.7516831 131.231992,19.0012811 131.387515,19.2470421 L134.399994,23.958719 Z M124.622397,10.7107195 L124.622397,15.1449597 L126.177593,15.1449597 C126.948466,15.1449597 127.567671,14.9231998 128.032319,14.4787195 C128.521078,14.0256608 128.758515,13.4659806 128.744643,12.799679 C128.744643,11.4076792 127.909448,10.7097591 126.243847,10.7097591 L124.622397,10.7097591 L124.622397,10.7107195 Z"/>
    <polyline fill="#E64E3D" points="14.771 0 0 5.32 2.099 24.993 14.771 31.991"/>
    <polyline fill="#BD483B" points="14.771 31.991 27.508 24.921 29.892 5.25 14.771 0"/>
    <path fill="#FEC82F" d="M12.0902394,23.759998 C10.6308404,23.3039539 9.37004015,22.5260343 8.30783898,21.4262391 L8.30495879,21.4243181 C7.29148885,20.3782964 6.57532897,19.1578168 6.15647898,17.7628793 C6.39743887,17.9865583 6.65375905,18.1919992 6.92063894,18.3839983 C6.92351866,18.3916773 6.92831885,18.3993592 6.93119904,18.4099183 C6.92831923,18.3983992 6.92351914,18.3907183 6.92063894,18.3839983 C7.43007723,18.7405135 7.97279717,19.0358738 8.54879849,19.2700782 C8.71871848,19.3372782 8.89439809,19.3996792 9.06911828,19.4572782 C9.07967799,19.4630392 9.09215847,19.4630392 9.10271808,19.4668782 C9.1334377,19.4783973 9.1651177,19.4889592 9.19583827,19.4985592 C9.23238518,19.8610494 9.37429919,20.1760753 9.62157858,20.4436359 C9.86885796,20.7111956 10.1717446,20.8774494 10.5302385,20.9423991 C10.8057582,22.0531181 11.3299187,23.002559 12.0902394,23.759998 L12.0902394,23.759998 Z M12.6470393,10.9977593 C12.6470393,11.3087995 12.7315196,11.599679 12.8803193,11.8454395 C11.6803193,13.5283197 10.8566395,15.3551996 10.5004793,17.1628793 C10.461119,17.3635183 10.4265597,17.5622393 10.3996798,17.7571183 C9.98783987,17.8655993 9.64127979,18.1343983 9.42431999,18.4886373 C9.41227161,18.4884069 9.40107196,18.4852063 9.39072009,18.4790373 C9.36864038,18.4732764 9.35232019,18.4655973 9.33216028,18.4588773 C8.30824458,18.1207068 7.41352491,17.5719074 6.64800039,16.8124774 C6.54493259,16.7095606 6.44541247,16.6033212 6.3494405,16.4937564 L6.3100806,16.4467164 L6.1996808,16.3151974 L6.1545609,16.2585574 C6.14112099,16.2412784 6.1315207,16.2287974 6.11904071,16.2153574 C6.11424061,16.2057574 6.10656071,16.1999964 6.10272051,16.1932764 C6.08352051,16.1721574 6.06720032,16.1481564 6.05184061,16.1279964 C6.04416071,16.1164774 6.03552042,16.1068764 6.0297608,16.1001564 L6.02592061,16.0924774 C6.01344061,16.0790374 6.00288042,16.0607965 5.99040042,16.0454374 C5.93764458,15.9751933 5.88740452,15.9031942 5.83968043,15.8294374 C5.83104053,15.8179184 5.82144033,15.8063974 5.81568033,15.7919974 C5.8082796,15.7840985 5.80187966,15.7754577 5.79648033,15.7660772 C5.71779941,14.5950043 5.86349092,13.4525452 6.23355488,12.3386991 C6.60361787,11.224853 7.17056639,10.2223525 7.93439996,9.3311974 C9.04907559,8.02603906 10.424756,7.11499919 12.0614396,6.59807742 C12.0863997,6.77279751 12.1180796,6.9503975 12.1526399,7.1289574 C12.3369603,8.05727774 12.6451203,8.99327723 13.0636802,9.91103748 C12.8035202,10.1990377 12.6470401,10.5811174 12.6470401,10.9977574 L12.6470393,10.9977593 Z M11.6889591,19.3353592 C11.6909239,19.5984913 11.5923637,19.8160897 11.3932795,19.9881592 C11.2506019,20.1139806 11.0844832,20.1848785 10.8949233,20.2008548 C10.7053633,20.2168292 10.5297221,20.1747313 10.3679998,20.0745601 C10.2237145,19.986338 10.1142742,19.8663381 10.0396798,19.7145601 C9.9820528,19.5947281 9.95357258,19.4683288 9.95422851,19.3353592 C9.95370352,19.0387106 10.0743435,18.8044706 10.3161599,18.6326392 C10.5172371,18.4867903 10.7397798,18.4371266 10.983788,18.4836501 C11.227797,18.5301736 11.4164543,18.6582367 11.5497596,18.8678402 C11.6443492,19.0093307 11.690749,19.1651723 11.6889601,19.3353592 L11.6889591,19.3353592 Z M14.7705591,19.5359992 L14.7705591,24.16704 L14.6342389,24.165119 C13.9343988,23.915519 13.3219193,23.535359 12.8188792,23.032319 C12.2131187,22.4284791 11.7878388,21.6710401 11.5526389,20.7983991 C11.9222383,20.6102382 12.2131187,20.2895992 12.3580787,19.8959992 L12.3580787,19.8959992 L12.480959,19.8883192 C13.2563236,19.8499355 14.0195237,19.7324949 14.7705591,19.5359992 L14.7705591,19.5359992 Z M13.6694389,12.5155195 C13.9862864,12.6420179 14.3110861,12.6676178 14.6438391,12.5923194 C14.6831995,12.6508793 14.727359,12.7027192 14.7705591,12.7593592 L14.7705591,12.7593601 L14.7705591,18.4675202 C13.9919992,18.6902402 13.2067194,18.8256011 12.4300795,18.8630402 C12.4137593,18.8630402 12.4012788,18.8630402 12.385919,18.8668802 C12.2438392,18.3907202 11.8876789,18.0057592 11.4297588,17.8185593 C11.4527989,17.6697583 11.4787193,17.5180793 11.5094389,17.3625593 C11.8339192,15.722879 12.580799,14.0572793 13.6694389,12.5155195 Z M14.3164786,10.1328002 C14.547716,10.1437728 14.7434475,10.2328023 14.9036731,10.3998888 C15.0638996,10.566977 15.1446481,10.7662673 15.1459245,10.9977601 C15.1467163,11.237437 15.0625162,11.4421562 14.8933185,11.6119169 C14.7241199,11.7816777 14.5196799,11.8665589 14.2799984,11.8665589 C14.2377588,11.8665589 14.1964786,11.864639 14.1571183,11.8607993 C14.1494379,11.8569596 14.1417585,11.8569596 14.1331186,11.8550398 C13.9069257,11.8214848 13.7228983,11.7150355 13.5810382,11.5356901 C13.4391773,11.3563447 13.3779624,11.1527516 13.3973944,10.9249107 C13.4168265,10.6970699 13.511633,10.506783 13.6818149,10.3540502 C13.8519959,10.2013173 14.0513904,10.127567 14.2799984,10.1328002 L14.3164786,10.1328002 Z M14.7705591,6.18239965 L14.7705591,9.44063951 C14.5045041,9.35683401 14.234744,9.34243363 13.9612787,9.39743951 C13.5964795,8.58144003 13.3267194,7.75103939 13.1654392,6.92543971 C13.1260797,6.73151962 13.092479,6.53279982 13.0684794,6.34367983 C13.617599,6.23519945 14.1868793,6.18239965 14.7705591,6.18239965 L14.7705591,6.18239965 Z"/>
    <path fill="#DF9C26" d="M23.7619219,15.172799 C23.7619219,16.0435184 23.63808,16.8835183 23.40864,17.6783993 C22.6110365,17.463655 21.8430365,17.1711756 21.1046401,16.8009603 C21.1694084,16.4800716 21.139969,16.1680707 21.016321,15.8649593 C21.9642048,14.9190652 22.7638848,13.861145 23.4153619,12.6912 C23.6400009,13.4793601 23.7619219,14.3136005 23.7619219,15.1728009 L23.7619219,15.172799 Z M22.92576,11.3836787 C22.8641645,11.5181156 22.7998435,11.651236 22.7327991,11.783039 C22.107672,13.0055545 21.311833,14.1044345 20.3452801,15.0796789 C20.0633473,14.9099686 19.7580097,14.8324453 19.4292654,14.8471103 C19.100523,14.8617752 18.8033013,14.9661783 18.5376002,15.1603186 C18.0354645,14.7641269 17.5586642,14.339487 17.1072012,13.8863989 C16.5338518,13.3154733 16.0068121,12.7045933 15.5260815,12.0537586 C15.7517004,11.7890577 15.8793323,11.4834364 15.9089751,11.1368938 C15.9386181,10.7903502 15.864746,10.4674922 15.6873608,10.168319 C16.8050527,9.08543962 18.058494,8.19328027 19.4476801,7.49183892 C20.9983287,8.43943078 22.157689,9.73671012 22.92576,11.3836787 Z M20.3683201,16.4783974 C20.3787736,16.7173337 20.3032696,16.9250191 20.1418091,17.1014566 C19.9803505,17.277895 19.7801598,17.3714767 19.5412341,17.3822047 C19.3023093,17.3929327 19.0945355,17.3176687 18.9179138,17.1564118 C18.741293,16.9951529 18.6474799,16.7950678 18.6364792,16.5561574 C18.6470392,16.5465564 18.6566392,16.5407964 18.6633592,16.5350374 C18.6537592,16.5273584 18.6431992,16.5215974 18.6345583,16.5129574 L18.6335992,16.4774364 C18.6344325,16.3405155 18.6658187,16.210998 18.7277541,16.0888832 C18.7896895,15.9667683 18.8756459,15.8649305 18.9856245,15.7833661 C19.095603,15.7018017 19.2180098,15.6491112 19.3528446,15.6252948 C19.4876814,15.6014782 19.6207336,15.6090441 19.7520001,15.6479962 C19.9344952,15.7040722 20.0826337,15.8087609 20.1964148,15.9620662 C20.3101988,16.1153715 20.3674993,16.2874812 20.3683201,16.4783955 L20.3683201,16.4783974 Z M20.5939211,17.6918373 C21.3856484,18.0934648 22.2090096,18.4137842 23.064001,18.6527973 C22.7209872,19.4696344 22.2672356,20.2194587 21.7027431,20.9022692 C21.1382497,21.5850807 20.4871153,22.1717271 19.7493429,22.6622093 C19.0115704,23.1526925 18.2186546,23.5260701 17.3705945,23.7823468 C16.5225363,24.0386208 15.6555371,24.1668518 14.7696014,24.1670361 L14.7696014,24.1670361 L14.7696014,19.5359973 C16.0907403,19.1852862 17.3272207,18.6419263 18.4790412,17.9059173 C18.5145621,17.8857573 18.5520021,17.8607964 18.5894411,17.8367964 C18.9005416,18.0455954 19.242939,18.1364815 19.6166373,18.1094575 C19.9903374,18.0824325 20.316098,17.9432249 20.5939211,17.6918373 Z M14.7705581,12.759361 C15.683045,13.9799631 16.7390451,15.0602826 17.9385583,16.0003203 C17.8924783,16.1519993 17.8675193,16.3132784 17.8675193,16.4783993 C17.8674089,16.6630851 17.8978082,16.8426051 17.9587183,17.0169603 C16.9652556,17.6527039 15.9025372,18.1362232 14.7705581,18.4675202 L14.7705581,18.4675202 Z M14.7705591,6.18238403 C16.0115618,6.18009296 17.2013206,6.42585295 18.3398392,6.91968019 C17.0843753,7.62819664 15.941015,8.48611721 14.9097595,9.4934398 C14.8646387,9.47231951 14.8166394,9.45599932 14.7705591,9.44063951 L14.7705591,9.44063951 Z"/>
  </g>
</svg>

<svg xmlns="http://www.w3.org/2000/svg" width="135" height="32" viewBox="0 0 135 32"><g fill="none" fill-rule="evenodd"><path fill="#FFF" d="M41.871 18.468c0 3.845-1.333 5.768-4 5.768-.412 0-.816-.055-1.211-.167v-1.067c.436.147.847.222 1.233.222 1.023 0 1.76-.388 2.212-1.16.452-.775.678-1.98.678-3.619V8.021h1.088v10.447zm3.311 4.924v-1.256c1.14.725 2.298 1.09 3.468 1.09 1.244 0 2.189-.258 2.834-.774.644-.515.967-1.236.967-2.16 0-.816-.217-1.467-.651-1.951-.433-.486-1.372-1.146-2.818-1.985-1.615-.94-2.637-1.727-3.067-2.361-.43-.634-.644-1.365-.644-2.195 0-1.125.437-2.082 1.311-2.868.875-.784 2.041-1.178 3.501-1.178a8.822 8.822 0 0 1 2.845.478v1.156a7.085 7.085 0 0 0-2.989-.634c-1.082 0-1.939.276-2.574.824-.632.548-.95 1.245-.95 2.09 0 .814.217 1.463.65 1.945.434.48 1.369 1.136 2.806 1.966 1.489.846 2.48 1.596 2.973 2.251.494.657.74 1.41.74 2.262 0 1.223-.425 2.218-1.273 2.99-.848.77-2.047 1.155-3.596 1.155-.549 0-1.18-.086-1.894-.255-.715-.171-1.26-.368-1.639-.59zm11.558.567V8.02h5.646c5.659 0 8.49 2.59 8.49 7.77 0 2.48-.773 4.463-2.317 5.945-1.545 1.482-3.603 2.223-6.173 2.223H56.74zm3.59-13.014v10.101h1.778c1.556 0 2.776-.466 3.662-1.4.885-.934 1.327-2.204 1.327-3.81 0-1.52-.438-2.715-1.317-3.585-.877-.871-2.11-1.306-3.696-1.306H60.33zm23.037 13.014H73.81V8.02h9.19v2.924h-5.6v3.545h5.213v2.911h-5.213v3.644h5.968v2.914zm12.53 0h-9.491V8.02h3.59v13.025h5.901v2.913zM101.75 8.02v15.938h-3.59V8.02h3.59zm17.132 0l-5.49 15.938h-4.067L103.899 8.02h3.868l3.323 11.09c.179.6.285 1.132.323 1.591h.065c.065-.555.18-1.1.346-1.634l3.301-11.047h3.756zM134.4 23.959h-4.123l-2.478-4.102a15.56 15.56 0 0 0-.533-.834 4.706 4.706 0 0 0-.517-.627 2.026 2.026 0 0 0-.545-.4 1.37 1.37 0 0 0-.617-.139h-.966v6.102h-3.59V8.02h5.689c3.868 0 5.801 1.446 5.801 4.334a4.45 4.45 0 0 1-.255 1.54c-.171.47-.411.895-.722 1.272a4.56 4.56 0 0 1-1.129.98c-.46.282-.952.497-1.473.642v.046a2.3 2.3 0 0 1 .69.36c.222.167.437.361.644.585.208.222.407.46.594.716.19.256.362.505.518.751l3.012 4.712zm-9.778-13.248v4.434h1.556c.77 0 1.39-.222 1.854-.666a2.133 2.133 0 0 0 .713-1.68c0-1.391-.836-2.09-2.501-2.09h-1.622v.002z"/><path fill="#E64E3D" d="M14.771 0L0 5.32l2.099 19.673 12.672 6.998"/><path fill="#BD483B" d="M14.771 31.991l12.737-7.07L29.892 5.25 14.771 0"/><path fill="#FEC82F" d="M12.09 23.76a8.846 8.846 0 0 1-3.782-2.334l-.003-.002a8.843 8.843 0 0 1-2.149-3.661c.241.224.498.429.765.621.003.008.007.015.01.026-.003-.012-.007-.02-.01-.026.51.357 1.052.652 1.628.886.17.067.345.13.52.187.01.006.023.006.034.01l.093.032c.036.362.178.677.426.945.247.267.55.433.908.498.276 1.111.8 2.06 1.56 2.818zm.557-12.762c0 .31.085.602.233.847-1.2 1.683-2.023 3.51-2.38 5.318-.039.2-.073.4-.1.594a1.64 1.64 0 0 0-.976.732.067.067 0 0 1-.033-.01c-.022-.006-.039-.013-.059-.02a6.78 6.78 0 0 1-2.983-1.965l-.039-.047-.11-.132-.045-.056c-.014-.018-.023-.03-.036-.044-.005-.01-.012-.015-.016-.022-.02-.02-.036-.045-.051-.065-.008-.012-.016-.021-.022-.028l-.004-.008c-.013-.013-.023-.031-.036-.047a3.77 3.77 0 0 1-.15-.216c-.009-.011-.019-.023-.024-.037a.14.14 0 0 1-.02-.026 8.881 8.881 0 0 1 .438-3.427 8.881 8.881 0 0 1 1.7-3.008 8.816 8.816 0 0 1 4.127-2.733c.025.175.057.352.092.531.184.928.492 1.864.91 2.782-.26.288-.416.67-.416 1.087zm-.958 8.337a.817.817 0 0 1-.296.653.842.842 0 0 1-.498.213.842.842 0 0 1-.527-.126.857.857 0 0 1-.414-.74c0-.296.12-.53.362-.702a.828.828 0 0 1 .668-.15.828.828 0 0 1 .566.385.808.808 0 0 1 .139.467zm3.082.201v4.631l-.137-.002a4.84 4.84 0 0 1-1.815-1.133c-.606-.604-1.031-1.361-1.266-2.234.37-.188.66-.508.805-.902l.123-.008a11.212 11.212 0 0 0 2.29-.352zm-1.102-7.02c.317.126.642.152.975.076.04.059.083.11.127.167v5.709c-.779.222-1.564.358-2.34.395-.017 0-.03 0-.045.004a1.648 1.648 0 0 0-.956-1.048c.023-.15.049-.3.08-.456.324-1.64 1.07-3.306 2.16-4.847zm.647-2.383a.84.84 0 0 1 .588.267c.16.167.24.366.242.598 0 .24-.083.444-.253.614a.834.834 0 0 1-.613.255 1.27 1.27 0 0 1-.123-.006c-.008-.004-.015-.004-.024-.006a.837.837 0 0 1-.552-.32.837.837 0 0 1-.184-.61.837.837 0 0 1 .285-.57.837.837 0 0 1 .598-.222h.036zm.455-3.95V9.44a1.601 1.601 0 0 0-.81-.044 11.465 11.465 0 0 1-.796-2.472 8.075 8.075 0 0 1-.097-.581 8.778 8.778 0 0 1 1.703-.162z"/><path fill="#DF9C26" d="M23.762 15.173c0 .87-.124 1.71-.353 2.505a12.21 12.21 0 0 1-2.304-.877c.064-.32.035-.633-.089-.936a14.27 14.27 0 0 0 2.4-3.174c.224.788.346 1.623.346 2.482zm-.836-3.79a13.18 13.18 0 0 1-2.58 3.696 1.6 1.6 0 0 0-.917-.232 1.6 1.6 0 0 0-.891.313c-.503-.396-.98-.82-1.43-1.274-.574-.57-1.101-1.181-1.582-1.832a1.59 1.59 0 0 0 .383-.917 1.59 1.59 0 0 0-.222-.969 15.255 15.255 0 0 1 3.76-2.676 8.85 8.85 0 0 1 3.479 3.892zm-2.558 5.095a.835.835 0 0 1-.226.623.835.835 0 0 1-.6.281.835.835 0 0 1-.624-.226.835.835 0 0 1-.282-.6c.011-.01.02-.015.027-.021-.01-.008-.02-.013-.028-.022l-.001-.036a.86.86 0 0 1 .352-.694.86.86 0 0 1 .766-.135c.182.056.33.16.444.314a.851.851 0 0 1 .172.516zm.226 1.214c.792.401 1.615.722 2.47.96a8.95 8.95 0 0 1-1.361 2.25 8.95 8.95 0 0 1-1.954 1.76 8.95 8.95 0 0 1-2.378 1.12 8.95 8.95 0 0 1-2.601.385v-4.631a13.082 13.082 0 0 0 3.709-1.63c.036-.02.073-.045.11-.07.312.21.654.3 1.028.273.373-.027.7-.166.977-.417zm-5.823-4.933c.912 1.221 1.968 2.301 3.168 3.241a1.646 1.646 0 0 0 .02 1.017 12.29 12.29 0 0 1-3.188 1.45zm0-6.577a8.835 8.835 0 0 1 3.569.738 16.479 16.479 0 0 0-3.43 2.573 1.291 1.291 0 0 0-.14-.052z"/></g></svg>
